packages/crayons-icon/icons/article-analytics.svg

<?xml version="1.0" encoding="UTF-8"?>
<svg width="14px" height="14px" viewBox="0 0 14 14" version="1.1" xmlns="http://www.w3.org/2000/svg" xmlns:xlink="http://www.w3.org/1999/xlink">
    <!-- Generator: Sketch 52.6 (67491) - http://www.bohemiancoding.com/sketch -->
    <title>icon/article-analytics</title>
    <desc>Created with Sketch.</desc>
    <g id="Icons-✅" stroke="none" stroke-width="1" fill="none" fill-rule="evenodd">
        <g id="Icons" transform="translate(-163.000000, -2785.000000)" fill="currentColor">
            <g id="icon/article-analytics" transform="translate(163.000000, 2785.000000)">
                <g id="article-analytics">
                    <path d="M13.3,12.6 C13.6865993,12.6 14,12.9134007 14,13.3 C14,13.6865993 13.6865993,14 13.3,14 L1.56,14 C0.69843579,14 4.4408921e-16,13.3015642 0,12.44 L0,0.7 C5.76077896e-09,0.313400679 0.313400679,1.04308215e-08 0.7,1.04308215e-08 C1.08659932,1.04308215e-08 1.39999999,0.313400679 1.4,0.7 L1.4,12.44 C1.4,12.5283656 1.47163444,12.6 1.56,12.6 L13.3,12.6 Z M3.1,9.54 C2.91614131,9.54340162 2.73896611,9.47108521 2.61,9.34 C2.47303562,9.20974694 2.39549974,9.02901085 2.39549974,8.84 C2.39549974,8.65098915 2.47303562,8.47025306 2.61,8.34 L4.46,6.48 C5.05285046,5.92248305 5.97714954,5.92248305 6.57,6.48 L7.78,7.7 C7.81416408,7.73055728 7.86583592,7.73055728 7.9,7.7 L10.78,4.85 L9.78,4.85 C9.39340068,4.84999999 9.08000002,4.53659932 9.08000002,4.15 C9.08000002,3.76340068 9.39340068,3.45000001 9.78,3.45 L12.44,3.45 C12.5301519,3.44952144 12.6191743,3.47006505 12.7,3.51 C12.9606903,3.61709717 13.1333554,3.86824644 13.14,4.15 L13.14,6.84 C13.14,7.22659932 12.8265993,7.54 12.44,7.54 C12.0534007,7.54 11.74,7.22659932 11.74,6.84 L11.74,5.84 L8.89,8.69 C8.30250989,9.25127328 7.37749011,9.25127328 6.79,8.69 L5.58,7.47 C5.54130192,7.44165493 5.48869808,7.44165493 5.45,7.47 L3.6,9.33 C3.46832072,9.46433974 3.28811326,9.54002687 3.1,9.54 Z" id="Combined-Shape"></path>
                </g>
            </g>
        </g>
    </g>
</svg>

<svg viewBox="0 0 14 14"><path d="M13.3 12.6a.7.7 0 0 1 0 1.4H1.56A1.56 1.56 0 0 1 0 12.44V.7a.7.7 0 0 1 1.4 0v11.74c0 .088.072.16.16.16H13.3zM3.1 9.54a.67.67 0 0 1-.49-.2.69.69 0 0 1 0-1l1.85-1.86a1.54 1.54 0 0 1 2.11 0L7.78 7.7a.09.09 0 0 0 .12 0l2.88-2.85h-1a.7.7 0 0 1 0-1.4h2.66c.09 0 .18.02.26.06a.71.71 0 0 1 .44.64v2.69a.7.7 0 0 1-1.4 0v-1L8.89 8.69a1.52 1.52 0 0 1-2.1 0L5.58 7.47a.11.11 0 0 0-.13 0L3.6 9.33a.7.7 0 0 1-.5.21z" fill="currentColor" fill-rule="evenodd"/></svg>
